icon-themes/breeze_svg/cmd/32/recsearch.svg

<svg viewBox="0 0 32 32" xmlns="http://www.w3.org/2000/svg"><path d="m13 4c-4.98601 0-9 4.01399-9 9s4.01399 9 9 9c2.22181 0 4.24588-.802023 5.8125-2.126953l8.126953 8.126953 1.060547-1.060547-8.126953-8.126953c1.32493-1.56662 2.126953-3.59069 2.126953-5.8125 0-4.98601-4.01399-9-9-9zm0 1a8 8 0 0 1 8 8 8 8 0 0 1 -8 8 8 8 0 0 1 -8-8 8 8 0 0 1 8-8z" fill="#4d4d4d"/></svg>

<svg xmlns="http://www.w3.org/2000/svg" viewBox="0 0 32 32">
 <path 
     style="fill:#4d4d4d" 
     d="M 13 4 C 8.01399 4 4 8.01399 4 13 C 4 17.98601 8.01399 22 13 22 C 15.22181 22 17.24588 21.197977 18.8125 19.873047 L 26.939453 28 L 28 26.939453 L 19.873047 18.8125 C 21.197977 17.24588 22 15.22181 22 13 C 22 8.01399 17.98601 4 13 4 z M 13 5 A 8 8 0 0 1 21 13 A 8 8 0 0 1 13 21 A 8 8 0 0 1 5 13 A 8 8 0 0 1 13 5 z "
     />
</svg>
